!!! OTL: Berkowitz174
!!! Chapter: 1
!!! Section: I
!!! Page: 40
!!! Mode: 
!!! Encoder: DJB
**kern
*staff1
*I"Piano
=1-
*clefG2
*k[b-e-a-]
*c:
*M3/4
4g/
4cc\
4e-/
=2
4f/
8a-/L
8g/J
4f/
=3
4g/
4f/
4d/
=4
4.c/
8r
8c/L
8B-/J
=5
4A-/
4c/
4e-/
=6
8d/L
8e-/J
4.d/
8c/
=7
8Bn/L
8c/J
8d/L
8e-/J
8f/L
8a-/J
=8
2g/
4e-/
=9
4a-/
4e-/
4c/
=10
!!linebreak:original
4a-/
4g/
4f/
=11
4d/
4e-/
4f/
=12
4a-/
8g/L
8f/J
4e-/
=13
4cc\
4b-\
4a-/
=14
4g/
4cc\
4e-/
=15
4f/
8f/L
8e-/J
4d/
=16
2c/
4r
==
*-
